!!!COM: Bach, Johann Sebastian
!!!OPR: Joh. Seb. Bachs vierstimmige Choralgesänge
!!!XEN: Four-part Chorales
!!!OTL: 80. Herr Jesu Christ, du hast bereit't
!!!SCT: BWV 333
!!!SCA: Thematisch-systematisches Verzeichnis der musikalischen Werke Johann Sebastian Bach: Bach-Werke-Verzeichnis (Schmieder)
!!!YOR: Bach Gesellschaft Edition xxxix
!!!ENC: Steven Rasmussen
!!!CDT: 1685/3//-1750/7/28/
!!!OCY: Deutschland
!!!YEC: Copyright (c) 1994, 2000 Center for Computer Assisted Research in the Humanities
!!!YEM: Rights to all derivative editions reserved
!!!YEN: United States of America
**kern	**kern	**kern	**kern	**silbe
*I:[BASSO]	*I:[TENORE]	*I:[ALTO]	*I:[SOPRANO]	*I:[SOPRANO]
*>[A,A,B]	*>[A,A,B]	*>[A,A,B]	*>[A,A,B]	*
*>A	*>A	*>A	*>A	*
*clefF4	*clefGv2	*clefG2	*clefG2	*
*k[b-e-]	*k[b-e-]	*k[b-e-]	*k[b-e-]	*
*g:	*g:	*g:	*g:	*
*M4/4	*M4/4	*M4/4	*M4/4	*
8GL	4B-	4d	4g	Herrdein'n
8FJ	.	.	.	.
=1	=1	=1	=1	=1
4E-	8B-L	4e-	8gL	Je-Leib
.	8cJ	.	8aJ	.
8DL	4d	8fL	4b-	-suund
8E-J	.	8gJ	.	.
4.F	8cL	4f	8aL	Christ,Blut
.	8B-J	.	8gJ	.
.	4A	4c	4f	duzu
8E-	.	.	.	.
=2	=2	=2	=2	=2
8DL	8B-L	4f	4b-	hastein'r
8BB-J	8dJ	.	.	.
4F	16cLL	4f	4a	be-Mahl-
.	16dJ	.	.	.
.	8e-J	.	.	.
4BB-;	(8e-L	4f;	4b-;	-reit't-zeit,
.	8d;J)	.	.	.
4GG	4d	4g	4b-	fÃ¼rtust
=3	=3	=3	=3	=3
8CL	8e-L	8gL	4a	un-uns
8DJ	16dL	8f#J	.	.
.	16cJJ	.	.	.
8E-L	8B-L	4g	4g	-srezu
8DJ	8BnJ	.	.	.
8E-L	8cL	8gL	4cc	mat-GÃ¤-
8CJ	8e-J	8aJ	.	.
8GGL	4d	8aL	4b-	-te-sten
8BB-J	.	8gJ	.	.
=4	=4	=4	=4	=4
8CL	8e-L	8gL	2a	See-wÃ¤h-
8AAJ	8c	16f#L	.	.
.	.	16enJJ	.	.
4D	8A	4f#	.	.
.	16dL	.	.	.
.	16cJJ	.	.	.
4GG;	4B-;	4d;	4g;	-len-len.
=:|!	=:|!	=:|!	=:|!	=:|!
*>B	*>B	*>B	*>B	*
4F#	4d	4a	4dd	Wir
=5	=5	=5	=5	=5
4G	4d	8aL	4b-	tra-
.	.	8gJ	.	.
4A	4c	8gL	4cc	-gen
.	.	8fJ	.	.
4B-	8cL	4f	4dd	uns-
.	8B-J	.	.	.
4F	8B-L	8.fL	4cc	-re
.	8AJ	.	.	.
.	.	16e-Jk	.	.
=6	=6	=6	=6	=6
8.GL	8.B-L	8dL	4b-	SÃ¼n-
.	.	16enL	.	.
16AJk	16cJk	16f#JJ	.	.
8B-L	4d	4g	4b-	-den-
8GJ	.	.	.	.
4D;	4d;	4f#;	4a;	-last;
4G	4d	4g	4b-	drum
=7	=7	=7	=7	=7
8DL	4d	4f	4b-	kom-
8E-J	.	.	.	.
8FL	4c	8fL	4a	-men
8F#J	.	8e-J	.	.
8GL	8B-L	(8d	4b-	wir
8BB-J	8dJ	4g)	.	.
8CL	8e-L	.	4a	bei
8DJ	8dJ	8f#	.	.
=8	=8	=8	=8	=8
4E-	4.d	8gL	4g	dir
.	.	8f#J	.	.
4E-	.	8gL	4g	zu
.	8c	8GJ	.	.
4D;	4A;	4d;	4f#;	Gast
4GG	4d	8GL	4b-	und
.	.	8gJ	.	.
=9	=9	=9	=9	=9
4D	8.dL	8gL	4a	su-
.	.	8f#J	.	.
.	16cJk	.	.	.
4E-	8B-L	8gL	4g	-chen
.	8AJ	8fnJ	.	.
8E-L	8GL	4e-	4cc	Rat
8FF#J	8AJ	.	.	.
8GGL	8AL	4d	4b-	und
8BB-J	8GJ	.	.	.
=10	=10	=10	=10	=10
8CL	8GL	8e-L	2a	HÃ¼l-
8AAJ	16F#L	8c	.	.
.	16EnJJ	.	.	.
4D	4F#	8A	.	.
.	.	16dL	.	.
.	.	16cJJ	.	.
4GG;	4D;	4Bn;	4g;	-fe.
==|!	==|!	==|!	==|!	==|!
*-	*-	*-	*-	*-
!!!RWG: Key is interpreted using the Humdrum key tool.
!!!END: 1994/06/08
!!!EMD: Converted from MuseData to Humdrum Dec 19, 2000, by Andreas Kornstaedt using muse2kern.
!!!EED: Craig Stuart Sapp
!!!EEV: 2024/03/31
!!!ONB: Some non-unicode characters
!!!filter-keyboard: satb2gs
